X:144
T:Johnny I Do Love You
R:polka
S:juliaclifford.eu
H:See also #55
Z:id:hn-polka-144
M:2/4
L:1/8
K:G
g>e | dB AG | B2 DB | cd/c/ Bc | A3 g/e/ |
dB AG | B2 DB | c2 BA |1 G2 :|2 G2 G>A ||
Bd de | d2 d>c | Bd ef | g2 g>d |
Bd de | d2 g>a | ba ag | a2 a2 | 
Bd de | d2 d>c | Bd ef | g2 f>e |
dB AG | B2 DB | c2 BA | G2 || 

